svgs/thin/hospital.svg

<svg xmlns="http://www.w3.org/2000/svg" viewBox="0 0 384 512"><!--! Font Awesome Pro 6.0.0-alpha3 by @fontawesome - https://fontawesome.com License - https://fontawesome.com/license (Commercial License) --><path d="M344 0h-304C17.94 0 0 17.94 0 40v464C0 508.4 3.594 512 8 512s8-3.594 8-8V40c0-13.22 10.78-24 24-24h304c13.22 0 24 10.78 24 24v464c0 4.406 3.594 8 8 8S384 508.4 384 504V40C384 17.94 366.1 0 344 0zM207.7 56H176.3C167.3 56 160 63.31 160 72.31V96H136.3C127.3 96 120 103.3 120 112.3v31.38C120 152.7 127.3 160 136.3 160h23.47L160 183.7C160 192.7 167.3 200 176.3 200h31.38C216.7 200 224 192.7 224 183.7V160.2L247.7 160C256.7 160 264 152.7 264 143.7V112.3C264 103.3 256.7 96 247.7 96H224V72.31C224 63.31 216.7 56 207.7 56zM248 112.3L247.6 144L208 144.4L207.7 184L176 183.6L175.6 144L136 143.7L136.3 112H176l.3125-40L208 72.31V112L248 112.3zM136 268c0-11.03-8.969-20-20-20h-40c-11.03 0-20 8.969-20 20v40c0 11.03 8.969 20 20 20h40c11.03 0 20-8.969 20-20V268zM120 308c0 2.219-1.781 4-4 4h-40c-2.219 0-4-1.781-4-4v-40c0-2.219 1.781-4 4-4h40c2.219 0 4 1.781 4 4V308zM172 248c-11.03 0-20 8.969-20 20v40c0 11.03 8.969 20 20 20h40c11.03 0 20-8.969 20-20v-40c0-11.03-8.969-20-20-20H172zM216 268v40c0 2.219-1.781 4-4 4h-40c-2.219 0-4-1.781-4-4v-40c0-2.219 1.781-4 4-4h40C214.2 264 216 265.8 216 268zM308 248h-40c-11.03 0-20 8.969-20 20v40c0 11.03 8.969 20 20 20h40c11.03 0 20-8.969 20-20v-40C328 256.1 319 248 308 248zM312 308c0 2.219-1.781 4-4 4h-40c-2.219 0-4-1.781-4-4v-40c0-2.219 1.781-4 4-4h40c2.219 0 4 1.781 4 4V308zM192 384c-30.88 0-56 25.12-56 55.99v64c0 4.406 3.578 8.007 8 8.007S152 508.4 152 504v-64c0-22.06 17.94-40 40-40s40 17.94 40 40v64c0 4.406 3.578 8.007 8 8.007s8-3.601 8-8.007v-64C248 409.1 222.9 384 192 384z"/></svg>

<svg xmlns="http://www.w3.org/2000/svg" viewBox="0 0 384 512"><!-- Font Awesome Pro 6.0.0-alpha2 by @fontawesome - https://fontawesome.com License - https://fontawesome.com/license (Commercial License) --><path d="M344 0H40C17.938 0 0 17.938 0 40V504C0 508.406 3.594 512 8 512S16 508.406 16 504V40C16 26.781 26.781 16 40 16H344C357.219 16 368 26.781 368 40V504C368 508.406 371.594 512 376 512S384 508.406 384 504V40C384 17.938 366.062 0 344 0ZM207.688 56H176.312C167.312 56 160 63.312 160 72.312V96H136.312C127.312 96 120 103.312 120 112.312V143.688C120 152.688 127.312 160 136.312 160H159.781L160 183.688C160 192.688 167.312 200 176.312 200H207.688C216.688 200 224 192.688 224 183.688V160.219L247.688 160C256.688 160 264 152.688 264 143.688V112.312C264 103.312 256.688 96 247.688 96H224V72.312C224 63.312 216.688 56 207.688 56ZM248 112.312L247.594 144L208 144.406L207.688 184L176 183.594L175.594 144L136 143.688L136.312 112H176L176.312 72L208 72.312V112L248 112.312ZM136 268C136 256.969 127.031 248 116 248H76C64.969 248 56 256.969 56 268V308C56 319.031 64.969 328 76 328H116C127.031 328 136 319.031 136 308V268ZM120 308C120 310.219 118.219 312 116 312H76C73.781 312 72 310.219 72 308V268C72 265.781 73.781 264 76 264H116C118.219 264 120 265.781 120 268V308ZM172 248C160.969 248 152 256.969 152 268V308C152 319.031 160.969 328 172 328H212C223.031 328 232 319.031 232 308V268C232 256.969 223.031 248 212 248H172ZM216 268V308C216 310.219 214.219 312 212 312H172C169.781 312 168 310.219 168 308V268C168 265.781 169.781 264 172 264H212C214.219 264 216 265.781 216 268ZM308 248H268C256.969 248 248 256.969 248 268V308C248 319.031 256.969 328 268 328H308C319.031 328 328 319.031 328 308V268C328 256.969 319.031 248 308 248ZM312 308C312 310.219 310.219 312 308 312H268C265.781 312 264 310.219 264 308V268C264 265.781 265.781 264 268 264H308C310.219 264 312 265.781 312 268V308ZM192 384C161.125 384 136 409.125 136 440V504C136 508.406 139.578 512 144 512S152 508.406 152 504V440C152 417.938 169.938 400 192 400S232 417.938 232 440V504C232 508.406 235.578 512 240 512S248 508.406 248 504V440C248 409.125 222.875 384 192 384Z"/></svg>
